**kern
*part1
*staff1
*clefC1
*k[f#]
*M2/4
8r
=2
1%0r
=3
1%0r
=4
1%0r
=5
1%0r
=6
1%0r
=7
1%0r
=8
1%0r
=9
4r
8r
16.bL
32aJ
=10
8g
8g
8g
16.ccL
32bJ
=11
8a
8a
8a
16.ddL
32ccJ
=12
8b
16ccL
16ddJ
16eeL
16ddJ
16ccL
16bJ
=13
16aL
16g
16f#y
16gJ
8a
=-
*-
